material/.icons/material/phone-cancel.svg

<svg xmlns="http://www.w3.org/2000/svg" viewBox="0 0 24 24"><path d="M6.62 10.79c1.44 2.83 3.76 5.15 6.59 6.59l2.2-2.2c.28-.28.67-.36 1.02-.25 1.12.37 2.32.57 3.57.57.55 0 1 .45 1 1V20c0 .55-.45 1-1 1-9.39 0-17-7.61-17-17 0-.55.45-1 1-1h3.5c.55 0 1 .45 1 1 0 1.25.2 2.45.57 3.57.11.35.03.74-.25 1.02l-2.2 2.2M16.5 2C14 2 12 4 12 6.5s2 4.5 4.5 4.5S21 9 21 6.5 19 2 16.5 2m0 7.5c-1.66 0-3-1.34-3-3 0-.56.15-1.08.42-1.5L18 9.08c-.42.27-.94.42-1.5.42M19.08 8L15 3.92c.42-.27.94-.42 1.5-.42 1.66 0 3 1.34 3 3 0 .56-.15 1.08-.42 1.5z"/></svg>

<?xml version="1.0" encoding="UTF-8"?><!DOCTYPE svg PUBLIC "-//W3C//DTD SVG 1.1//EN" "http://www.w3.org/Graphics/SVG/1.1/DTD/svg11.dtd"><svg xmlns="http://www.w3.org/2000/svg" xmlns:xlink="http://www.w3.org/1999/xlink" version="1.1" id="mdi-phone-cancel" width="24" height="24" viewBox="0 0 24 24"><path d="M6.62 10.79C8.06 13.62 10.38 15.94 13.21 17.38L15.41 15.18C15.69 14.9 16.08 14.82 16.43 14.93C17.55 15.3 18.75 15.5 20 15.5C20.55 15.5 21 15.95 21 16.5V20C21 20.55 20.55 21 20 21C10.61 21 3 13.39 3 4C3 3.45 3.45 3 4 3H7.5C8.05 3 8.5 3.45 8.5 4C8.5 5.25 8.7 6.45 9.07 7.57C9.18 7.92 9.1 8.31 8.82 8.59L6.62 10.79M16.5 2C14 2 12 4 12 6.5S14 11 16.5 11 21 9 21 6.5 19 2 16.5 2M16.5 9.5C14.84 9.5 13.5 8.16 13.5 6.5C13.5 5.94 13.65 5.42 13.92 5L18 9.08C17.58 9.35 17.06 9.5 16.5 9.5M19.08 8L15 3.92C15.42 3.65 15.94 3.5 16.5 3.5C18.16 3.5 19.5 4.84 19.5 6.5C19.5 7.06 19.35 7.58 19.08 8Z" /></svg>
